!!!!SEGMENT: pl-wtm--r-250-n--002_noskowski-zygmunt--zielona-laka.krn
!!!cenid: 18xx:2159
!!!COM: Noskowski, Zygmunt
!!!COM-rismid: pe106604
!!!CDT: 1846/05/02-1909/07/23
!!!CNT: Polish
!!!OTL: Zielona łąka
!!!PDT:
!!!AGN: Secular
!!!SMS-siglum: PL-Wtm
!!!SMS-shelfmark: R 250/N
!!!SMS-shelfwork: 002 W
!!!SMS-variant:
!!!SMS-altvar:
!!!NIFC-rismid: 1001147363
!!!URL-scan: http://repozytorium.nifc.pl/skany/pl-wtm-nut--r250n
!!!ONB-nifc:
!!!OMD: Polacca maestoso.
!!!key:
**kern	**text	**dynam	**kern	**text	**text	**dynam
*part2	*part2	*part2	*part1	*part1	*part1	*part1
*staff2	*staff2	*	*staff1	*staff1	*staff1	*
*Ibass	*	*	*Itenor	*	*	*
*I"[Basy]	*	*	*I"[Tenory]	*	*	*
*clefF4	*	*	*clefG2	*	*	*
*	*	*	*ITrd7c12	*	*	*
*k[b-e-a-]	*	*	*k[b-e-a-]	*	*	*
*E-:	*	*	*E-:	*	*	*
*M3/4	*	*	*M3/4	*	*	*
*>[A,B,B,A]	*>[A,B,B,A]	*>[A,B,B,A]	*>[A,B,B,A]	*>[A,B,B,A]	*>[A,B,B,A]	*>[A,B,B,A]
=1	=1	=1	=1	=1	=1	=1
*>A	*>A	*>A	*>A	*>A	*>A	*>A
*^	*	*	*^	*	*	*
!	!	!	!LO:DY:b:rj	!	!	!	!	!LO:DY:b:rj
4G/	4E-\	.	f	4e-/	4B-\	Zie-	.	f
8E-/	8E-\	.	.	8B-/	8G\	-lo-	.	.
8E-/	8GG\	.	.	8B-/	8G\	-na	.	.
8E-/	8BB-\	.	.	8G/	8E-\	łą-	.	.
8C/	8C\	.	.	8E-/	8E-\	-ka	.	.
=2	=2	=2	=2	=2	=2	=2	=2	=2
8E-/	8AA-\	.	.	8c/	8A-\	pię-	.	.
8E-/	8C\	.	.	(<16c/LL	8A-\	-kny	.	.
.	.	.	.	16e-/JJ)	.	.	.	.
2E-/	(4E-\	.	.	2B-/	2G\	kwiat,	.	.
.	4D\)	.	.	.	.	.	.	.
=3	=3	=3	=3	=3	=3	=3	=3	=3
8E-/	8C\	.	.	8A-/	8E-\	pię-	.	.
8D/	8BB-\	.	.	(<16A-/LL	8F\	-kny	.	.
.	.	.	.	16B-/JJ)	.	.	.	.
(4D/	(4BBn\	.	.	2G/	(4F\	kwiat,	.	.
4E-/)	4C\)	.	.	.	4E-\)	.	.	.
=4	=4	=4	=4	=4	=4	=4	=4	=4
8C/	8AA-\	.	.	8F/	8E-\	pię-	.	.
8D/	8BB-\	.	.	(<16F/LL	8D\	-kny	.	.
.	.	.	.	16G/JJ)	.	.	.	.
(8E-/L	(8E-\L	.	.	2E-/	2E-\	kwiat	.	.
8BB-/J)	8BB-\J)	.	.	.	.	.	.	.
8C/	8C\	pię-	.	.	.	.	.	.
8D/	8D\	-kny	.	.	.	.	.	.
!!LO:LB:g=original
=5	=5	=5	=5	=5	=5	=5	=5	=5
(8.G/L	(8.E-\L	.	.	(8.e-/L	(8.B-\L	Wę-	.	.
16B-/Jk)	16BB-\Jk)	.	.	16f/Jk)	16d\Jk)	.	.	.
8B-/	8E-\	.	.	8g/	8e-\	-druj	.	.
8B-/	8G\	.	.	8e-/	8e-\	dzie-	.	.
8B-/	8B-\	.	.	8f/	8d\	-wczy-	.	.
8F/	8D\	.	.	8B-/	8B-\	-no,	.	.
=6	=6	=6	=6	=6	=6	=6	=6	=6
4B-/	(8.BB-\L	.	.	(8.f/L	(8.d\L	wę-	.	.
.	16E-\Jk)	.	.	16g/Jk)	16e-\Jk)	.	.	.
8A-/	8C\	.	.	8a-/	8e-\	-druj	.	.
8A-/	8D\	.	.	8f/	8B-\	je-	.	.
8G/	8E-\	.	.	8g/	8B-\	-dy-	.	.
8G/	8G\	.	.	8B-/	8B-\	-na	.	.
=7	=7	=7	=7	=7	=7	=7	=7	=7
8F/	8F\	.	.	8B-/	8A-\	ze	.	.
8F/	8BB-\	.	.	(<16B-/LL	8A-\	mną	.	.
.	.	.	.	16d/JJ)	.	.	.	.
2E-/	(4C\	.	.	2e-/	(4G\	w świat,	.	.
.	4GG\)	.	.	.	4B-\)	.	.	.
=8	=8	=8	=8	=8	=8	=8	=8	=8
8C/	8AA-\	.	.	8A-/	8F\	ze	.	.
8BBn/	8GG\	.	.	(<16A-/LL	8F\	mną	.	.
.	.	.	.	16B-/JJ)	.	.	.	.
(8C/L	(8C\L	.	.	2G/	2En\	w świat	.	.
8D-X/J)	8D-\J)	.	.	.	.	.	.	.
8C/	8C\	ze	.	.	.	.	.	.
8C/	8BB-X\	mną	.	.	.	.	.	.
!!LO:LB:g=original
=9	=9	=9	=9	=9	=9	=9	=9	=9
8C/	8AA-\	.	.	(<16B-/LL	8F\	ze	.	.
.	.	.	.	16A-/JJ)	.	.	.	.
8Dn/	8BB-\	.	.	(16F/LL	(16F\LL	mną	.	.
.	.	.	.	16G/JJ)	16G\JJ)	.	.	.
2E-/	(8E-\L	.	.	2E-X/	2E-X\	w świat.	.	.
.	8C\J)	.	.	.	.	.	.	.
.	8BB-\	ze	.	.	.	.	.	.
.	8C\	mną	.	.	.	.	.	.
=10	=10	=10	=10	=10	=10	=10	=10	=10
(<8.G/L	(8.D-X\L	.	.	(8.e-/L	(8.B-\L	Wę-	.	.
16A-/Jk)	16C\Jk)	.	.	16f/Jk)	16c\Jk)	.	.	.
8B-/	8BB-\	.	.	8g/	8d-X\	-druj	.	.
8B-/	8GG\	.	.	8e-/	8d-\	dzie-	.	.
8A-/	8AA-\	.	.	8f/	8c\	-wczy-	.	.
8F/	8D-X\	.	.	8B-/	8B-\	-no,	.	.
=11	=11	=11	=11	=11	=11	=11	=11	=11
4B-/	4BB-\	.	.	(8.f/L	4d-X\	wę-	.	.
.	.	.	.	16g/Jk)	.	.	.	.
8c/	8AA-\	.	.	8a-/	8e-\	-druj	.	.
8A-/	8C\	.	.	8f/	8c\	je-	.	.
8A-/	8Dn\	.	.	8g/	8B-\	-dy-	.	.
8G/	8E-\	.	.	8B-/	8B-\	-no,	.	.
=12	=12	=12	=12	=12	=12	=12	=12	=12
8G/	8G\	.	.	8B-/	8B-\	ze	.	.
8A-/	8F\	.	.	(16B-/LL	8B-\	mną	.	.
.	.	.	.	16d/JJ)	.	.	.	.
2G/	(>8E-\L	.	.	2e-/	2B-\	w świat	.	.
.	8BB-\J)	.	.	.	.	.	.	.
.	8E-\	ze	.	.	.	.	.	.
.	8D-X\	mną	.	.	.	.	.	.
!!LO:PB:g=original
=13	=13	=13	=13	=13	=13	=13	=13	=13
8E-/	8C\	.	.	8A-/	8A-\	ze	.	.
8D/	8BBn\	.	.	(<16A-/LL	8F\	mną	.	.
.	.	.	.	16B-/JJ)	.	.	.	.
2C/	(8C\L	.	.	2G/	(4E-\	w świat,	.	.
.	8GG\J)	.	.	.	.	.	.	.
.	8C\	ze	.	.	4En\)	.	.	.
.	8BB-X\	mną	.	.	.	.	.	.
=14	=14	=14	=14	=14	=14	=14	=14	=14
8C/	8AA-\	.	.	(16B-/LL	8F\	ze	.	.
.	.	.	.	16A-/JJ)	.	.	.	.
8D/	8BB-\	.	.	(16F/LL	8D\	mną	.	.
.	.	.	.	16G/JJ)	.	.	.	.
(8E-/L	(8E-\L	.	.	2E-/	2E-\	w świat	.	.
8G/J)	8G\J)	.	.	.	.	.	.	.
8B-/	8B-\	ze	.	.	.	.	.	.
8G/	8G\	mną	.	.	.	.	.	.
=15	=15	=15	=15	=15	=15	=15	=15	=15
!	!	!	!	!LO:N:vis=2.	!LO:N:vis=2.	!	!	!
2G/	4.E-\	Ach!	.	2e-/	2B-\	Ach!	.	.
.	16BB-\	wę-	.	.	.	.	.	.
.	16BB-\	-druj	.	.	.	.	.	.
8G/	8E-\	.	.	8B-/	8B-\	ze	.	.
8G/	8BB-\	.	.	8e-/	8B-\	mną	.	.
!!LO:LB:g=original
=16	=16	=16	=16	=16	=16	=16	=16	=16
[2.G/	[2.E-\	.	.	[2.e-/	[2.B-\	w świat!	.	.
=17	=17	=17	=17	=17	=17	=17	=17	=17
4G/_	4E-\_	.	.	4e-/_	4B-\_	.	.	.
8G/]	8E-\]	.	.	8e-/]	8B-\]	.	.	.
8r	4.ryy	.	.	8r	8ryy	.	.	.
!LO:TX:t=P:problem:podwójna kreska taktowa po 4r	!	!	!	!LO:TX:t=P:problem:podwójna kreska taktowa po 4r	!	!	!	!
!LO:TX:a:t=Fine	!	!	!	!LO:TX:a:t=Fine	!	!	!	!
4r	.	.	.	4r	4ryy	.	.	.
*	*	*	*	*v	*v	*	*	*
=18!|:	=18!|:	=18!|:	=18!|:	=18!|:	=18!|:	=18!|:	=18!|:
!!!OMD: Cantabile.
*>B	*>B	*>B	*>B	*>B	*>B	*>B	*>B
*k[anb-e-]	*	*	*	*k[anb-e-]	*	*	*
*	*	*	*^	*^	*	*	*
!	!	!	!LO:DY:a:rj	!LO:DY:b	!	!	!	!	!LO:DY:b:rj
4.B-/	(4BB-\	.	p	p	4.f/	4.d\	Swie-	Po-	p
.	8D\)	.	.	.	.	.	.	.	.
8B-/	8F\	.	.	.	8d/	8d\	-ci	-wiedz-	.
8B-/	8A-X\	.	.	.	8f/	8d\	mie-	-że	.
8A-X/	8F\	.	.	.	8d/	8B-\	-siąc,	mnie	.
*	*	*	*v	*v	*	*	*	*	*
=19	=19	=19	=19	=19	=19	=19	=19	=19
8G/	8E-\	.	.	8g/	8B-\	a	dzie-	.
8A-X/	8F\	.	.	8f/	8B-\	nie	-wczę	.
(8B-/L	(8G\L	.	.	(8e-/L	(8e-\L	grze-	po-	.
8A-/J)	8F\J)	.	.	8d/J)	8d\J)	.	.	.
(8G/L	(8E-\L	.	.	(8c/L	(8c\L	-je,	-wiedʒ,	.
8F/J)	8D\J)	.	.	8B-/J)	8B-\J)	.	.	.
=20	=20	=20	=20	=20	=20	=20	=20	=20
*Xbrackettup	*Xbrackettup	*	*	*Xbrackettup	*Xbrackettup	*	*	*
!LO:TUP:a	!LO:TUP:b	!	!	!LO:TUP:a	!LO:TUP:b	!	!	!
6E-/	6C\	.	.	12c/L	6G\	Do	Co	.
.	.	.	.	12d/J	.	.	.	.
12E-/	12C\	.	.	12e-/	12G\	ko-	masz	.
4.E-/	4.BB-\	.	.	4.c/	4.G-X\	-cha-	po-	.
8E-/	8BB-\	.	.	8d/	8G-\	-nia	-wie-	.
!!LO:LB:g=original
=21	=21	=21	=21	=21	=21	=21	=21	=21
8E-/	8AAn\	.	.	8e-/	8F\	ser-	-dzieć,	.
8E-/	8AA\	.	.	8c/	8F\	-ce	po-	.
4E-/	4C\	.	.	4A/	4F\	mdle-	-wie-	.
(8F/L	(8F\L	.	.	4F/	4F\	-je.	-dzieć,	.
8E-/J)	8E-\J)	.	.	.	.	.	.	.
=22	=22	=22	=22	=22	=22	=22	=22	=22
*	*	*	*^	*	*	*	*	*^
8D/	8D\	.	.	.	8B-/	8F\	Za-	Oj	.	.
!	!	!	!	!LO:HP:b	!	!	!	!	!	!LO:HP:b
8F/	8BB-\	.	<	<	8d/	8B-\	-przę-	wie-	<	<
4.G/	4.GG\	.	.	.	4.d/	4.B-\	-gaj-	-dzia-	.	.
8D/	8GG\	.	[[	[	8B-/	8G\	-cie	-ło	[[	[
*	*	*	*v	*v	*	*	*	*	*v	*v
=23	=23	=23	=23	=23	=23	=23	=23	=23
8G/	8E-\	.	.	8c/	8G\	sześ-	ser-	.
8G-X/	8C\	.	.	8e-/	8c\	-cią	-ce	.
4.F/	4.AA\	.	.	4.e-/	4.c\	ko-	mo-	.
8F/	8E-\	.	.	8c/	8A\	-ni.	-je,	.
=24	=24	=24	=24	=24	=24	=24	=24	=24
!	!	!	!LO:DY:a:rj	!	!	!	!	!LO:DY:a:rj
4.F/	4.D\	.	f	4.f/	4.B-\	Po-	Że	f
8F/	8BB-\	.	.	8d/	8B-\	-je-	mnie	.
8F/	8D\	.	.	8f/	8B-\	-dzie-	u-	.
8G/	8G\	.	.	8d/	8B-\	-my	-wie-	.
!!LO:LB:g=original
=25	=25	=25	=25	=25	=25	=25	=25	=25
8G/	8C\	.	.	8e-/	8B-\	prę-	-dziesʒ,	.
8F/	8F\	.	.	8c/	8A\	-dzej	u-	.
4E-/	4FF\	.	.	4c/	4A\	do	-wie-	.
4D/	4BB-\	.	.	4B-/	4B-\	niej.	-dziesʒ.	.
=26	=26	=26	=26	=26	=26	=26	=26	=26
8D/	8BB-\	.	.	8B-/	8F\	Za-	Oj	.
8F/	8AA-X\	.	.	8d/	8B-\	-przę-	wie-	.
4.F/	4.GG\	.	.	4.d/	4.B-\	-gaj-	-dzia-	.
8F/	8D\	.	.	8B-/	8G\	-cie	-ło	.
=27	=27	=27	=27	=27	=27	=27	=27	=27
*	*	*	*^	*	*	*	*	*^
8E-/	8C\	.	.	.	8c/	8G\	sześ-	ser-	.	.
!	!	!	!	!LO:HP:b	!	!	!	!	!	!LO:HP:b
8G/	8BB-\	.	>	>	8e-/	8c\	-cią	-ce	>	>
4.G/	4.AA\	.	.	.	4.e-/	4.c\	ko-	mo-	.	.
8G/	8E-\	.	]	]	8c/	8A\	-ni	-je,	]]	]
*	*	*	*v	*v	*	*	*	*	*v	*v
=28	=28	=28	=28	=28	=28	=28	=28	=28
!	!	!	!LO:DY:a:rj	!	!	!	!	!LO:DY:a:rj
4.G/	4.D\	.	p	4.f/	4.Bn\	Po-	Że	p
8G/	8BBn\	.	.	8d/	8d\	-je-	mnie	.
8G/	8GG\	.	.	8f/	8B\	-dzie-	u-	.
8F/	8BB\	.	.	8d/	8G\	-my	-wie-	.
!!LO:LB:g=original
=29	=29	=29	=29	=29	=29	=29	=29	=29
*	*	*	*^	*	*	*	*	*^
!	!	!	!	!LO:HP:b	!	!	!	!	!	!LO:HP:b
8E-/	8C\	.	>	>	8e-/	8G\	prę-	-dziesʒ	>	>
8G/	8E-\	.	.	.	8c/	8G\	-dzej	u-	.	.
4F/	4F\	.	.	.	4c/	4A\	do-	-wie-	.	.
!	!	!	!	!	!LO:TX:b:t=Da capo al Fine	!	!	!	!	!
4B-/	4B-\	.	]	]	4B-/	4B-\	-niej	-dziesʒ.	]	]
*	*	*	*v	*v	*	*	*	*	*v	*v
*v	*v	*	*	*	*	*	*	*
*	*	*	*v	*v	*	*	*
=:|!	=:|!	=:|!	=:|!	=:|!	=:|!	=:|!
*-	*-	*-	*-	*-	*-	*-
!!!system-decoration: {(s1,s2)}
!!!RDF**kern: > = above
!!!RDF**kern: < = below
!!!AIN: 1 bass 1 tenor
!!!ENC: Marta Lawrence
!!!END: 2021-06-02
!!!ENC: Katarzyna Serwa
!!!END: 2021-05-23
